X:208 
T:Tom Billy's Polka  
B:CRE3.073 (Polca Tom Billy)
F:file ID: cre.3/208tom_b_P
N:This is one of a group referred to as "The Ballydesmond
Polkas".
R:polka % A-B-A
Q:120
M:2/4
L:1/8
K:Am
A>B|c2 Bc/B/|AB G>A|Bd eB|g2 g>a|
ea g/a/g/e/|dB GA/B/|ce dB|A2:|
A>g|ea ag/e/|dg g>a|ea a^f|g2 g>a|
ea g/a/g/e/|dB GA/B/|ce dB|A2:|

%%%

